X: 1
T: Hava Nagila
R: reel
M: 4/4
L: 1/8
K: Gmin
|:"D"D2 D3 ^F ED|^F2 F3 A GF|"G"G2 G3 B AG|
[1 "D"^F2 "Cm"E/F/E "D"D2 C/E/D:|2 "D"^F2 "Cm"E/F/E "D"D4|:"D"^FF2E DD D2|
"Cm"EE2D CC C2|C2E3D CC G2|1 "D"^F2 "Cm"E/F/E "D"F4:|
[2 "D"^F2 "Cm"E/F/E "D"D4||"Gm"G4 G4|G2 G2 G2 G2|
"Gm"G/G/G B>A GB AG|G/G/G B>A GB AG|
"Cm"A/A/A c>B Ac BA|A/A/A c>B Ac BA|
"Cm"A/A/A "D"d2 z4|"Cm"A/A/A "D"d2 z4|"D7"DD (B/A/G/^F/) "Gm"G2||


